Newaita-dark/apps/32/firefox-new.svg

<?xml version="1.0" encoding="UTF-8"?>
<svg xmlns="http://www.w3.org/2000/svg" xmlns:xlink="http://www.w3.org/1999/xlink" width="32pt" height="32pt" viewBox="0 0 32 32" version="1.1">
<defs>
<radialGradient id="radial0" gradientUnits="userSpaceOnUse" cx="450.908936" cy="189.579361" fx="450.908936" fy="189.579361" r="21.166656" gradientTransform="matrix(0.000000130628,-0.0781325,-0.105479,-0.000000101539,35.625008,63.595329)">
<stop offset="0" style="stop-color:rgb(0%,0%,0%);stop-opacity:0.313725;"/>
<stop offset="0.222222" style="stop-color:rgb(0%,0%,0%);stop-opacity:0.27451;"/>
<stop offset="1" style="stop-color:rgb(0%,0%,0%);stop-opacity:0;"/>
</radialGradient>
<radialGradient id="radial1" gradientUnits="userSpaceOnUse" cx="450.908936" cy="189.579361" fx="450.908936" fy="189.579361" r="21.166656" gradientTransform="matrix(-0.000000130628,0.0781325,0.105479,0.000000101539,-3.871971,-7.527482)">
<stop offset="0" style="stop-color:rgb(0%,0%,0%);stop-opacity:0.313725;"/>
<stop offset="0.222222" style="stop-color:rgb(0%,0%,0%);stop-opacity:0.27451;"/>
<stop offset="1" style="stop-color:rgb(0%,0%,0%);stop-opacity:0;"/>
</radialGradient>
<radialGradient id="radial2" gradientUnits="userSpaceOnUse" cx="450.908936" cy="189.579361" fx="450.908936" fy="189.579361" r="21.166656" gradientTransform="matrix(-0.000000130628,-0.0781325,0.105479,-0.000000101539,-3.871971,63.595329)">
<stop offset="0" style="stop-color:rgb(0%,0%,0%);stop-opacity:0.313725;"/>
<stop offset="0.222222" style="stop-color:rgb(0%,0%,0%);stop-opacity:0.27451;"/>
<stop offset="1" style="stop-color:rgb(0%,0%,0%);stop-opacity:0;"/>
</radialGradient>
<radialGradient id="radial3" gradientUnits="userSpaceOnUse" cx="450.908936" cy="189.579361" fx="450.908936" fy="189.579361" r="21.166656" gradientTransform="matrix(0.000000130628,0.0781325,-0.105479,0.000000101539,35.625007,-7.527483)">
<stop offset="0" style="stop-color:rgb(0%,0%,0%);stop-opacity:0.313725;"/>
<stop offset="0.222222" style="stop-color:rgb(0%,0%,0%);stop-opacity:0.27451;"/>
<stop offset="1" style="stop-color:rgb(0%,0%,0%);stop-opacity:0;"/>
</radialGradient>
<linearGradient id="linear0" gradientUnits="userSpaceOnUse" x1="960" y1="1695.118164" x2="960" y2="495.118103" gradientTransform="matrix(0.016538,0,0,0.016538,0,0)">
<stop offset="0" style="stop-color:rgb(100%,65.490196%,14.901961%);stop-opacity:1;"/>
<stop offset="1" style="stop-color:rgb(100%,71.764706%,30.196078%);stop-opacity:1;"/>
</linearGradient>
<linearGradient id="linear1" gradientUnits="userSpaceOnUse" x1="720" y1="1695.118164" x2="720" y2="175.118118" gradientTransform="matrix(0.016538,0,0,0.016538,0,0)">
<stop offset="0" style="stop-color:rgb(100%,43.921569%,26.27451%);stop-opacity:1;"/>
<stop offset="1" style="stop-color:rgb(100%,54.117647%,39.607843%);stop-opacity:1;"/>
</linearGradient>
<linearGradient id="linear2" gradientUnits="userSpaceOnUse" x1="-465.666656" y1="297" x2="-470.67981" y2="305.355255" gradientTransform="matrix(0.062506,0,0,0.062506,0,13.438783)">
<stop offset="0" style="stop-color:rgb(100%,79.215686%,15.686275%);stop-opacity:1;"/>
<stop offset="1" style="stop-color:rgb(100%,83.529412%,30.980392%);stop-opacity:1;"/>
</linearGradient>
<linearGradient id="linear3" gradientUnits="userSpaceOnUse" x1="359.833344" y1="233.5" x2="359.833344" y2="-168.666672" gradientTransform="matrix(0.062506,0,0,0.062506,0,13.438783)">
<stop offset="0" style="stop-color:rgb(100%,54.117647%,39.607843%);stop-opacity:1;"/>
<stop offset="1" style="stop-color:rgb(100%,67.058824%,56.862745%);stop-opacity:1;"/>
</linearGradient>
<linearGradient id="linear4" gradientUnits="userSpaceOnUse" x1="1280" y1="1695.118164" x2="1280" y2="175.118118" gradientTransform="matrix(0.016538,0,0,0.016538,0,0)">
<stop offset="0" style="stop-color:rgb(100%,43.921569%,26.27451%);stop-opacity:1;"/>
<stop offset="1" style="stop-color:rgb(100%,54.117647%,39.607843%);stop-opacity:1;"/>
</linearGradient>
<linearGradient id="linear5" gradientUnits="userSpaceOnUse" x1="640" y1="1695.118164" x2="640" y2="175.118118" gradientTransform="matrix(0.016538,0,0,0.016538,0,0)">
<stop offset="0" style="stop-color:rgb(92.54902%,25.098039%,47.843137%);stop-opacity:1;"/>
<stop offset="1" style="stop-color:rgb(94.117647%,38.431373%,57.254902%);stop-opacity:1;"/>
</linearGradient>
</defs>
<g id="surface1">
<path style=" stroke:none;fill-rule:nonzero;fill:url(#radial0);" d="M 15.875 28.035156 L 17.859375 28.035156 L 17.859375 26.710938 L 15.875 26.710938 Z M 15.875 28.035156 "/>
<path style=" stroke:none;fill-rule:nonzero;fill:url(#radial1);" d="M 15.875 28.035156 L 13.890625 28.035156 L 13.890625 29.355469 L 15.875 29.355469 Z M 15.875 28.035156 "/>
<path style=" stroke:none;fill-rule:nonzero;fill:url(#radial2);" d="M 15.875 28.035156 L 13.890625 28.035156 L 13.890625 26.710938 L 15.875 26.710938 Z M 15.875 28.035156 "/>
<path style=" stroke:none;fill-rule:nonzero;fill:url(#radial3);" d="M 15.875 28.035156 L 17.859375 28.035156 L 17.859375 29.355469 L 15.875 29.355469 Z M 15.875 28.035156 "/>
<path style=" stroke:none;fill-rule:nonzero;fill:rgb(0%,0%,0%);fill-opacity:0.329412;" d="M 15.882812 8.519531 C 15.746094 8.519531 15.613281 8.558594 15.5 8.636719 L 3.59375 16.90625 C 3.234375 17.15625 3.210938 17.679688 3.546875 17.957031 L 15.453125 27.878906 C 15.699219 28.085938 16.054688 28.085938 16.300781 27.878906 L 28.207031 17.957031 C 28.542969 17.679688 28.519531 17.15625 28.160156 16.90625 L 16.253906 8.636719 C 16.144531 8.5625 16.015625 8.519531 15.882812 8.519531 Z M 15.882812 8.519531 "/>
<path style=" stroke:none;fill-rule:nonzero;fill:url(#linear0);" d="M 15.875 8.519531 C 15.742188 8.519531 15.609375 8.5625 15.5 8.636719 L 3.59375 16.90625 C 3.234375 17.15625 3.210938 17.679688 3.546875 17.957031 L 15.453125 27.878906 C 15.574219 27.984375 15.726562 28.035156 15.875 28.035156 Z M 15.875 8.519531 "/>
<path style=" stroke:none;fill-rule:nonzero;fill:url(#linear1);" d="M 7.605469 2.898438 C 7.242188 2.898438 6.945312 3.191406 6.945312 3.558594 L 6.945312 17.449219 C 6.945312 17.792969 7.207031 18.078125 7.546875 18.109375 C 11.578125 18.441406 15.875 22.742188 15.875 26.710938 L 15.875 8.382812 L 7.980469 3.011719 C 7.867188 2.9375 7.738281 2.894531 7.605469 2.898438 Z M 7.605469 2.898438 "/>
<path style=" stroke:none;fill-rule:nonzero;fill:url(#linear2);" d="M 15.875 8.519531 C 16.011719 8.519531 16.144531 8.5625 16.253906 8.636719 L 28.160156 16.90625 C 28.519531 17.15625 28.542969 17.679688 28.207031 17.957031 L 16.300781 27.878906 C 16.175781 27.984375 16.027344 28.035156 15.875 28.035156 Z M 15.875 8.519531 "/>
<path style=" stroke:none;fill-rule:nonzero;fill:url(#linear3);" d="M 24.148438 2.898438 C 24.511719 2.898438 24.804688 3.191406 24.808594 3.558594 L 24.808594 17.449219 C 24.808594 17.792969 24.546875 18.078125 24.207031 18.109375 C 20.175781 18.441406 15.875 22.742188 15.875 26.710938 L 15.875 8.382812 L 23.773438 3.011719 C 23.882812 2.9375 24.015625 2.894531 24.148438 2.898438 Z M 24.148438 2.898438 "/>
<path style=" stroke:none;fill-rule:nonzero;fill:url(#linear4);" d="M 24.148438 2.898438 C 24.015625 2.894531 23.882812 2.9375 23.773438 3.011719 L 15.875 8.382812 L 15.875 8.519531 C 16.011719 8.519531 16.144531 8.5625 16.253906 8.636719 L 24.808594 14.578125 L 24.808594 3.558594 C 24.804688 3.191406 24.511719 2.898438 24.148438 2.898438 Z M 24.148438 2.898438 "/>
<path style=" stroke:none;fill-rule:nonzero;fill:url(#linear5);" d="M 7.605469 2.898438 C 7.242188 2.898438 6.945312 3.191406 6.945312 3.558594 L 6.945312 14.578125 L 15.5 8.636719 C 15.609375 8.5625 15.742188 8.519531 15.875 8.519531 L 15.875 8.382812 L 7.980469 3.011719 C 7.867188 2.9375 7.738281 2.894531 7.605469 2.898438 Z M 7.605469 2.898438 "/>
<path style=" stroke:none;fill-rule:nonzero;fill:rgb(0%,0%,0%);fill-opacity:0.235294;" d="M 3.355469 17.207031 C 3.253906 17.460938 3.316406 17.765625 3.546875 17.957031 L 15.453125 27.878906 C 15.574219 27.984375 15.726562 28.035156 15.875 28.035156 C 16.027344 28.035156 16.175781 27.984375 16.300781 27.878906 L 28.207031 17.957031 C 28.4375 17.765625 28.5 17.460938 28.398438 17.207031 C 28.359375 17.304688 28.296875 17.394531 28.207031 17.46875 L 16.300781 27.390625 C 16.175781 27.492188 16.027344 27.542969 15.875 27.542969 C 15.726562 27.542969 15.574219 27.492188 15.453125 27.390625 L 3.546875 17.46875 C 3.457031 17.394531 3.394531 17.304688 3.355469 17.207031 Z M 3.355469 17.207031 "/>
<path style=" stroke:none;fill-rule:nonzero;fill:rgb(100%,100%,100%);fill-opacity:0.392157;" d="M 7.605469 2.898438 C 7.242188 2.898438 6.945312 3.191406 6.945312 3.558594 L 6.945312 4.027344 C 6.945312 3.660156 7.242188 3.367188 7.605469 3.363281 C 7.738281 3.363281 7.867188 3.40625 7.980469 3.480469 L 15.53125 8.617188 C 15.519531 8.621094 15.511719 8.628906 15.5 8.636719 L 6.945312 14.578125 L 3.59375 16.90625 C 3.332031 17.085938 3.25 17.414062 3.351562 17.683594 C 3.394531 17.5625 3.476562 17.457031 3.59375 17.375 L 6.945312 15.046875 L 6.945312 15.050781 L 15.5 9.113281 C 15.609375 9.035156 15.742188 8.992188 15.875 8.992188 C 16.011719 8.992188 16.144531 9.035156 16.253906 9.113281 L 24.808594 15.050781 L 24.808594 15.046875 L 28.160156 17.375 C 28.277344 17.457031 28.355469 17.5625 28.402344 17.683594 C 28.503906 17.414062 28.421875 17.085938 28.160156 16.90625 L 24.808594 14.578125 L 16.253906 8.636719 C 16.242188 8.628906 16.230469 8.621094 16.21875 8.617188 L 23.773438 3.480469 C 23.878906 3.410156 23.996094 3.371094 24.121094 3.367188 C 24.128906 3.367188 24.140625 3.363281 24.148438 3.363281 C 24.160156 3.367188 24.171875 3.367188 24.179688 3.367188 C 24.203125 3.367188 24.226562 3.371094 24.246094 3.375 C 24.566406 3.421875 24.804688 3.695312 24.808594 4.027344 L 24.808594 3.558594 C 24.804688 3.226562 24.566406 2.953125 24.246094 2.90625 C 24.226562 2.902344 24.203125 2.898438 24.179688 2.898438 C 24.171875 2.898438 24.160156 2.898438 24.148438 2.898438 C 24.140625 2.898438 24.128906 2.898438 24.121094 2.898438 C 23.996094 2.902344 23.878906 2.941406 23.773438 3.011719 L 15.875 8.382812 L 7.980469 3.011719 C 7.867188 2.9375 7.738281 2.894531 7.605469 2.898438 Z M 7.605469 2.898438 "/>
<path style=" stroke:none;fill-rule:nonzero;fill:rgb(12.941177%,12.941177%,12.941177%);fill-opacity:1;" d="M 7.605469 2.804688 C 7.191406 2.804688 6.851562 3.144531 6.851562 3.558594 L 6.851562 14.527344 L 3.539062 16.828125 C 3.132812 17.113281 3.105469 17.710938 3.484375 18.03125 L 15.394531 27.953125 C 15.53125 28.070312 15.703125 28.128906 15.875 28.128906 C 16.046875 28.128906 16.21875 28.070312 16.359375 27.953125 L 28.265625 18.03125 C 28.648438 17.710938 28.621094 17.113281 28.214844 16.828125 L 24.902344 14.527344 L 24.902344 3.558594 C 24.902344 3.144531 24.5625 2.804688 24.148438 2.804688 C 23.996094 2.800781 23.847656 2.847656 23.722656 2.933594 L 15.875 8.269531 L 8.03125 2.933594 C 7.90625 2.847656 7.757812 2.800781 7.605469 2.804688 Z M 7.605469 2.992188 C 7.71875 2.988281 7.832031 3.023438 7.925781 3.089844 L 15.824219 8.457031 C 15.855469 8.480469 15.898438 8.480469 15.929688 8.457031 L 23.828125 3.089844 C 23.921875 3.023438 24.03125 2.988281 24.148438 2.992188 C 24.460938 2.992188 24.710938 3.242188 24.714844 3.558594 L 24.714844 14.578125 C 24.714844 14.609375 24.726562 14.636719 24.753906 14.652344 L 28.109375 16.984375 C 28.417969 17.199219 28.4375 17.644531 28.148438 17.886719 L 16.238281 27.808594 C 16.132812 27.894531 16.003906 27.941406 15.875 27.941406 C 15.746094 27.941406 15.617188 27.894531 15.511719 27.808594 L 3.605469 17.886719 C 3.316406 17.644531 3.335938 17.199219 3.644531 16.984375 L 7 14.652344 C 7.023438 14.636719 7.039062 14.609375 7.039062 14.578125 L 7.039062 3.558594 C 7.039062 3.242188 7.292969 2.992188 7.605469 2.992188 Z M 7.605469 2.992188 "/>
</g>
</svg>

<svg xmlns="http://www.w3.org/2000/svg" width="32pt" height="32pt" viewBox="0 0 32 32"><defs><radialGradient id="a" gradientUnits="userSpaceOnUse" cx="450.909" cy="189.579" fx="450.909" fy="189.579" r="21.167" gradientTransform="matrix(0 -.07813 -.10548 0 35.625 63.595)"><stop offset="0" stop-opacity=".314"/><stop offset=".222" stop-opacity=".275"/><stop offset="1" stop-opacity="0"/></radialGradient><radialGradient id="b" gradientUnits="userSpaceOnUse" cx="450.909" cy="189.579" fx="450.909" fy="189.579" r="21.167" gradientTransform="matrix(0 .07813 .10548 0 -3.872 -7.527)"><stop offset="0" stop-opacity=".314"/><stop offset=".222" stop-opacity=".275"/><stop offset="1" stop-opacity="0"/></radialGradient><radialGradient id="c" gradientUnits="userSpaceOnUse" cx="450.909" cy="189.579" fx="450.909" fy="189.579" r="21.167" gradientTransform="matrix(0 -.07813 .10548 0 -3.872 63.595)"><stop offset="0" stop-opacity=".314"/><stop offset=".222" stop-opacity=".275"/><stop offset="1" stop-opacity="0"/></radialGradient><radialGradient id="d" gradientUnits="userSpaceOnUse" cx="450.909" cy="189.579" fx="450.909" fy="189.579" r="21.167" gradientTransform="matrix(0 .07813 -.10548 0 35.625 -7.527)"><stop offset="0" stop-opacity=".314"/><stop offset=".222" stop-opacity=".275"/><stop offset="1" stop-opacity="0"/></radialGradient><linearGradient id="e" gradientUnits="userSpaceOnUse" x1="960" y1="1695.118" x2="960" y2="495.118" gradientTransform="rotate(.891) scale(.01654)"><stop offset="0" stop-color="#ffa726"/><stop offset="1" stop-color="#ffb74d"/></linearGradient><linearGradient id="f" gradientUnits="userSpaceOnUse" x1="720" y1="1695.118" x2="720" y2="175.118" gradientTransform="rotate(.891) scale(.01654)"><stop offset="0" stop-color="#ff7043"/><stop offset="1" stop-color="#ff8a65"/></linearGradient><linearGradient id="g" gradientUnits="userSpaceOnUse" x1="-465.667" y1="297" x2="-470.68" y2="305.355" gradientTransform="matrix(.0625 0 0 .0625 0 13.439)"><stop offset="0" stop-color="#ffca28"/><stop offset="1" stop-color="#ffd54f"/></linearGradient><linearGradient id="h" gradientUnits="userSpaceOnUse" x1="359.833" y1="233.5" x2="359.833" y2="-168.667" gradientTransform="matrix(.0625 0 0 .0625 0 13.439)"><stop offset="0" stop-color="#ff8a65"/><stop offset="1" stop-color="#ffab91"/></linearGradient><linearGradient id="i" gradientUnits="userSpaceOnUse" x1="1280" y1="1695.118" x2="1280" y2="175.118" gradientTransform="rotate(.891) scale(.01654)"><stop offset="0" stop-color="#ff7043"/><stop offset="1" stop-color="#ff8a65"/></linearGradient><linearGradient id="j" gradientUnits="userSpaceOnUse" x1="640" y1="1695.118" x2="640" y2="175.118" gradientTransform="rotate(.891) scale(.01654)"><stop offset="0" stop-color="#ec407a"/><stop offset="1" stop-color="#f06292"/></linearGradient></defs><path d="M15.875 28.035h1.984v-1.324h-1.984zm0 0" fill="url(#a)"/><path d="M15.875 28.035h-1.984v1.32h1.984zm0 0" fill="url(#b)"/><path d="M15.875 28.035h-1.984v-1.324h1.984zm0 0" fill="url(#c)"/><path d="M15.875 28.035h1.984v1.32h-1.984zm0 0" fill="url(#d)"/><path d="M15.883 8.52a.67.67 0 0 0-.383.117l-11.906 8.27a.66.66 0 0 0-.047 1.05l11.906 9.922a.656.656 0 0 0 .848 0l11.906-9.922a.66.66 0 0 0-.047-1.05l-11.906-8.27a.663.663 0 0 0-.371-.117zm0 0" fill-opacity=".329"/><path d="M15.875 8.52a.676.676 0 0 0-.375.117l-11.906 8.27a.66.66 0 0 0-.047 1.05l11.906 9.922a.642.642 0 0 0 .422.156zm0 0" fill="url(#e)"/><path d="M7.605 2.898a.66.66 0 0 0-.66.66V17.45c0 .344.262.63.602.66 4.031.332 8.328 4.633 8.328 8.602V8.383L7.98 3.012a.651.651 0 0 0-.375-.114zm0 0" fill="url(#f)"/><path d="M15.875 8.52c.137 0 .27.043.379.117l11.906 8.27a.66.66 0 0 1 .047 1.05l-11.906 9.922a.653.653 0 0 1-.426.156zm0 0" fill="url(#g)"/><path d="M24.148 2.898c.364 0 .657.293.66.66V17.45a.662.662 0 0 1-.601.66c-4.031.332-8.332 4.633-8.332 8.602V8.383l7.898-5.371a.642.642 0 0 1 .375-.114zm0 0" fill="url(#h)"/><path d="M24.148 2.898a.642.642 0 0 0-.375.114l-7.898 5.37v.138c.137 0 .27.043.379.117l8.555 5.941V3.558a.662.662 0 0 0-.66-.66zm0 0" fill="url(#i)"/><path d="M7.605 2.898a.66.66 0 0 0-.66.66v11.02L15.5 8.637a.676.676 0 0 1 .375-.117v-.137L7.98 3.012a.651.651 0 0 0-.375-.114zm0 0" fill="url(#j)"/><path d="M3.355 17.207a.655.655 0 0 0 .192.75l11.906 9.922a.653.653 0 0 0 .848 0l11.906-9.922a.655.655 0 0 0 .191-.75.65.65 0 0 1-.191.262L16.301 27.39a.67.67 0 0 1-.848 0L3.547 17.469a.65.65 0 0 1-.192-.262zm0 0" fill-opacity=".235"/><path d="M7.605 2.898a.66.66 0 0 0-.66.66v.47c0-.368.297-.66.66-.665.133 0 .262.043.375.117l7.551 5.137c-.011.004-.02.012-.031.02l-8.555 5.941-3.351 2.328a.661.661 0 0 0-.242.778.637.637 0 0 1 .242-.309l3.351-2.328v.004L15.5 9.113a.65.65 0 0 1 .754 0l8.555 5.938v-.004l3.351 2.328a.66.66 0 0 1 .242.309.661.661 0 0 0-.242-.778l-3.351-2.328-8.555-5.941a.158.158 0 0 0-.035-.02l7.554-5.137a.657.657 0 0 1 .348-.113c.008 0 .02-.004.027-.004a.097.097 0 0 0 .032.004.66.66 0 0 1 .629.66V3.56a.66.66 0 0 0-.63-.66H24.122a.657.657 0 0 0-.348.113l-7.898 5.37-7.895-5.37a.651.651 0 0 0-.375-.114zm0 0" fill="#fff" fill-opacity=".392"/><path d="M7.605 2.805a.757.757 0 0 0-.753.754v10.968l-3.313 2.301a.763.763 0 0 0-.055 1.203l11.91 9.922a.755.755 0 0 0 .965 0l11.907-9.922a.76.76 0 0 0-.051-1.203l-3.313-2.3V3.557a.757.757 0 0 0-1.18-.624L15.876 8.27 8.031 2.934a.72.72 0 0 0-.426-.13zm0 .187a.526.526 0 0 1 .32.098l7.9 5.367a.088.088 0 0 0 .105 0l7.898-5.367a.518.518 0 0 1 .32-.098c.313 0 .563.25.567.567v11.02c0 .03.012.058.039.073l3.355 2.332c.309.215.328.66.04.903l-11.91 9.922a.578.578 0 0 1-.364.132.578.578 0 0 1-.363-.132L3.605 17.887a.567.567 0 0 1 .04-.903L7 14.652a.089.089 0 0 0 .04-.074V3.558c0-.316.253-.566.565-.566zm0 0" fill="#212121"/></svg>
